components/Common/Svg/svgs/titledReact.svg

<svg
  width="96"
  height="137"
  viewBox="0 0 96 137"
  fill="none"
  xmlns="http://www.w3.org/2000/svg"
>
  <path
    d="M18.046 127L14.734 121.816H12.952V127H11.314V114.31H15.49C16.93 114.31 18.01 114.658 18.73 115.354C19.45 116.038 19.81 116.95 19.81 118.09C19.81 119.122 19.522 119.956 18.946 120.592C18.37 121.216 17.536 121.606 16.444 121.762L19.9 127H18.046ZM12.952 120.628H15.346C17.206 120.628 18.136 119.812 18.136 118.18C18.136 116.548 17.206 115.732 15.346 115.732H12.952V120.628ZM30.8981 121.51C30.8981 121.858 30.8741 122.158 30.8261 122.41H22.9241C22.9601 123.538 23.2781 124.384 23.8781 124.948C24.4901 125.512 25.2341 125.794 26.1101 125.794C26.9021 125.794 27.5621 125.596 28.0901 125.2C28.6301 124.792 28.9601 124.252 29.0801 123.58H30.8261C30.7061 124.264 30.4361 124.876 30.0161 125.416C29.6081 125.956 29.0741 126.376 28.4141 126.676C27.7541 126.976 27.0101 127.126 26.1821 127.126C25.2341 127.126 24.3941 126.922 23.6621 126.514C22.9301 126.106 22.3541 125.524 21.9341 124.768C21.5261 124 21.3221 123.1 21.3221 122.068C21.3221 121.036 21.5261 120.136 21.9341 119.368C22.3541 118.6 22.9301 118.012 23.6621 117.604C24.3941 117.196 25.2341 116.992 26.1821 116.992C27.1421 116.992 27.9761 117.196 28.6841 117.604C29.4041 118.012 29.9501 118.558 30.3221 119.242C30.7061 119.926 30.8981 120.682 30.8981 121.51ZM29.2421 121.618C29.2781 120.886 29.1581 120.274 28.8821 119.782C28.6061 119.29 28.2281 118.924 27.7481 118.684C27.2681 118.444 26.7461 118.324 26.1821 118.324C25.2821 118.324 24.5261 118.606 23.9141 119.17C23.3021 119.722 22.9721 120.538 22.9241 121.618H29.2421ZM37.0906 116.992C38.0506 116.992 38.8606 117.232 39.5206 117.712C40.1926 118.192 40.6606 118.834 40.9246 119.638V117.118H42.5626V127H40.9246V124.48C40.6606 125.284 40.1926 125.926 39.5206 126.406C38.8606 126.886 38.0506 127.126 37.0906 127.126C36.2146 127.126 35.4346 126.922 34.7506 126.514C34.0666 126.106 33.5266 125.524 33.1306 124.768C32.7466 124 32.5546 123.1 32.5546 122.068C32.5546 121.036 32.7466 120.136 33.1306 119.368C33.5266 118.6 34.0666 118.012 34.7506 117.604C35.4346 117.196 36.2146 116.992 37.0906 116.992ZM37.5586 118.45C36.5506 118.45 35.7406 118.774 35.1286 119.422C34.5286 120.058 34.2286 120.94 34.2286 122.068C34.2286 123.196 34.5286 124.084 35.1286 124.732C35.7406 125.368 36.5506 125.686 37.5586 125.686C38.2066 125.686 38.7826 125.536 39.2866 125.236C39.8026 124.936 40.2046 124.516 40.4926 123.976C40.7806 123.424 40.9246 122.788 40.9246 122.068C40.9246 121.348 40.7806 120.712 40.4926 120.16C40.2046 119.608 39.8026 119.188 39.2866 118.9C38.7826 118.6 38.2066 118.45 37.5586 118.45ZM49.5435 116.992C50.8035 116.992 51.8475 117.328 52.6755 118C53.5035 118.672 54.0135 119.572 54.2055 120.7H52.4775C52.3575 119.992 52.0275 119.44 51.4875 119.044C50.9595 118.636 50.2995 118.432 49.5075 118.432C48.9315 118.432 48.4035 118.564 47.9235 118.828C47.4555 119.092 47.0775 119.5 46.7895 120.052C46.5015 120.592 46.3575 121.264 46.3575 122.068C46.3575 122.872 46.5015 123.55 46.7895 124.102C47.0775 124.642 47.4555 125.044 47.9235 125.308C48.4035 125.572 48.9315 125.704 49.5075 125.704C50.2995 125.704 50.9595 125.5 51.4875 125.092C52.0275 124.684 52.3575 124.126 52.4775 123.418H54.2055C54.0135 124.558 53.5035 125.464 52.6755 126.136C51.8475 126.796 50.8035 127.126 49.5435 127.126C48.5955 127.126 47.7555 126.922 47.0235 126.514C46.2915 126.106 45.7155 125.524 45.2955 124.768C44.8875 124 44.6835 123.1 44.6835 122.068C44.6835 121.036 44.8875 120.136 45.2955 119.368C45.7155 118.6 46.2915 118.012 47.0235 117.604C47.7555 117.196 48.5955 116.992 49.5435 116.992ZM61.0652 125.56V127H59.8412C58.8332 127 58.0772 126.76 57.5732 126.28C57.0812 125.8 56.8352 124.996 56.8352 123.868V118.54H55.3592V117.118H56.8352V114.652H58.4912V117.118H61.0472V118.54H58.4912V123.904C58.4912 124.54 58.6052 124.978 58.8332 125.218C59.0732 125.446 59.4812 125.56 60.0572 125.56H61.0652ZM73.6853 114.31V123.742C73.6853 124.786 73.3853 125.614 72.7853 126.226C72.1973 126.826 71.3693 127.126 70.3013 127.126C69.1493 127.126 68.2433 126.79 67.5833 126.118C66.9353 125.434 66.6113 124.48 66.6113 123.256H68.2493C68.2493 123.988 68.4113 124.57 68.7353 125.002C69.0593 125.422 69.5573 125.632 70.2293 125.632C70.8653 125.632 71.3273 125.452 71.6153 125.092C71.9033 124.732 72.0473 124.282 72.0473 123.742V114.31H73.6853ZM84.258 123.706C84.258 124.306 84.114 124.864 83.826 125.38C83.538 125.896 83.1 126.316 82.512 126.64C81.924 126.964 81.198 127.126 80.334 127.126C79.494 127.126 78.744 126.976 78.084 126.676C77.436 126.364 76.914 125.944 76.518 125.416C76.134 124.876 75.912 124.264 75.852 123.58H77.598C77.634 123.94 77.754 124.294 77.958 124.642C78.174 124.978 78.474 125.26 78.858 125.488C79.254 125.704 79.728 125.812 80.28 125.812C81 125.812 81.552 125.62 81.936 125.236C82.32 124.852 82.512 124.36 82.512 123.76C82.512 123.244 82.374 122.824 82.098 122.5C81.834 122.176 81.504 121.924 81.108 121.744C80.712 121.552 80.172 121.348 79.488 121.132C78.684 120.868 78.036 120.622 77.544 120.394C77.064 120.154 76.65 119.8 76.302 119.332C75.966 118.864 75.798 118.246 75.798 117.478C75.798 116.818 75.954 116.236 76.266 115.732C76.59 115.228 77.046 114.838 77.634 114.562C78.234 114.286 78.936 114.148 79.74 114.148C80.988 114.148 81.978 114.454 82.71 115.066C83.442 115.666 83.868 116.434 83.988 117.37H82.224C82.128 116.866 81.87 116.422 81.45 116.038C81.03 115.654 80.46 115.462 79.74 115.462C79.08 115.462 78.552 115.636 78.156 115.984C77.76 116.32 77.562 116.8 77.562 117.424C77.562 117.916 77.688 118.318 77.94 118.63C78.204 118.93 78.528 119.17 78.912 119.35C79.296 119.518 79.824 119.71 80.496 119.926C81.312 120.19 81.966 120.442 82.458 120.682C82.962 120.922 83.388 121.288 83.736 121.78C84.084 122.26 84.258 122.902 84.258 123.706Z"
    fill="#A0A0A0"
  ></path>
  <path
    d="M82.2119 47.3797C82.2119 42.861 76.5531 38.5786 67.8771 35.923C69.8792 27.0802 68.9894 20.0449 65.0685 17.7925C64.1648 17.2642 63.1081 17.0139 61.9541 17.0139V20.1144C62.5937 20.1144 63.1081 20.2396 63.5391 20.4759C65.43 21.5604 66.2504 25.6899 65.6108 31.0011C65.4578 32.308 65.2076 33.6845 64.9017 35.0888C62.1766 34.4214 59.2011 33.907 56.0728 33.5733C54.1958 31.0011 52.2493 28.6653 50.2888 26.6214C54.8215 22.4086 59.076 20.1005 61.968 20.1005V17C58.1445 17 53.1391 19.7251 48.0781 24.4524C43.0172 19.7529 38.0118 17.0556 34.1883 17.0556V20.1562C37.0664 20.1562 41.3348 22.4503 45.8674 26.6353C43.9209 28.6792 41.9744 31.0011 40.1252 33.5733C36.9829 33.907 34.0075 34.4214 31.2824 35.1027C30.9626 33.7123 30.7262 32.3637 30.5594 31.0706C29.9059 25.7594 30.7123 21.63 32.5893 20.5316C33.0065 20.2813 33.5487 20.1701 34.1883 20.1701V17.0695C33.0204 17.0695 31.9637 17.3198 31.046 17.8481C27.1391 20.1005 26.2631 27.1219 28.2792 35.9369C19.631 38.6065 14 42.8749 14 47.3797C14 51.8985 19.6588 56.1808 28.3348 58.8364C26.3326 67.6792 27.2225 74.7145 31.1433 76.9669C32.0471 77.4953 33.1038 77.7456 34.2717 77.7456C38.0952 77.7456 43.1006 75.0204 48.1616 70.2931C53.2225 74.9926 58.2279 77.6899 62.0514 77.6899C63.2193 77.6899 64.276 77.4397 65.1937 76.9113C69.1006 74.6589 69.9766 67.6375 67.9605 58.8225C76.5809 56.1669 82.2119 51.8846 82.2119 47.3797ZM64.1092 38.1059C63.5947 39.8995 62.9552 41.7487 62.2322 43.5979C61.6621 42.4856 61.0643 41.3733 60.4108 40.261C59.7712 39.1487 59.0899 38.0642 58.4086 37.0075C60.383 37.2995 62.2878 37.661 64.1092 38.1059ZM57.7413 52.9134C56.6568 54.7904 55.5445 56.5701 54.3904 58.2247C52.3188 58.4054 50.2193 58.5028 48.1059 58.5028C46.0065 58.5028 43.907 58.4054 41.8492 58.2386C40.6952 56.584 39.569 54.8183 38.4845 52.9551C37.4278 51.1338 36.4685 49.2845 35.5926 47.4214C36.4546 45.5583 37.4279 43.6952 38.4706 41.8738C39.5551 39.9968 40.6674 38.2171 41.8214 36.5626C43.8931 36.3819 45.9926 36.2845 48.1059 36.2845C50.2054 36.2845 52.3049 36.3819 54.3626 36.5487C55.5167 38.2032 56.6429 39.969 57.7274 41.8321C58.784 43.6535 59.7434 45.5027 60.6193 47.3658C59.7434 49.2289 58.784 51.092 57.7413 52.9134ZM62.2322 51.1059C62.983 52.969 63.6226 54.8322 64.1509 56.6396C62.3295 57.0846 60.4108 57.46 58.4225 57.7519C59.1038 56.6814 59.7851 55.583 60.4247 54.4568C61.0643 53.3444 61.6621 52.2182 62.2322 51.1059ZM48.1338 65.9413C46.8407 64.6065 45.5476 63.1188 44.2685 61.4921C45.5198 61.5477 46.799 61.5894 48.092 61.5894C49.399 61.5894 50.692 61.5616 51.9573 61.4921C50.7059 63.1188 49.4129 64.6065 48.1338 65.9413ZM37.7893 57.7519C35.815 57.46 33.9102 57.0985 32.0888 56.6535C32.6032 54.86 33.2428 53.0108 33.9658 51.1616C34.5359 52.2739 35.1337 53.3862 35.7872 54.4985C36.4407 55.6108 37.1081 56.6953 37.7893 57.7519ZM48.0642 28.8182C49.3573 30.153 50.6503 31.6407 51.9295 33.2674C50.6781 33.2118 49.399 33.1701 48.1059 33.1701C46.799 33.1701 45.5059 33.1979 44.2407 33.2674C45.492 31.6407 46.7851 30.153 48.0642 28.8182ZM37.7754 37.0075C37.0942 38.0781 36.4129 39.1765 35.7733 40.3027C35.1337 41.415 34.5359 42.5273 33.9658 43.6396C33.215 41.7765 32.5754 39.9134 32.0471 38.1059C33.8685 37.6749 35.7872 37.2995 37.7754 37.0075ZM25.1925 54.415C20.2706 52.3156 17.0866 49.5626 17.0866 47.3797C17.0866 45.1968 20.2706 42.43 25.1925 40.3444C26.3883 39.83 27.6952 39.3712 29.0439 38.9401C29.8364 41.6653 30.8792 44.5017 32.1722 47.4075C30.8931 50.2995 29.8642 53.122 29.0856 55.8332C27.7091 55.4022 26.4022 54.9295 25.1925 54.415ZM32.6728 74.2835C30.7818 73.199 29.9615 69.0696 30.6011 63.7584C30.754 62.4514 31.0043 61.0749 31.3102 59.6707C34.0353 60.338 37.0107 60.8525 40.1391 61.1862C42.0161 63.7584 43.9626 66.0942 45.9231 68.1381C41.3904 72.3509 37.1359 74.6589 34.2439 74.6589C33.6182 74.645 33.0899 74.5199 32.6728 74.2835ZM65.6525 63.6889C66.306 69.0001 65.4996 73.1295 63.6225 74.2279C63.2054 74.4782 62.6632 74.5894 62.0236 74.5894C59.1455 74.5894 54.8771 72.2953 50.3445 68.1103C52.291 66.0664 54.2375 63.7445 56.0867 61.1723C59.229 60.8386 62.2044 60.3241 64.9295 59.6429C65.2493 61.0471 65.4996 62.3958 65.6525 63.6889ZM71.0055 54.415C69.8097 54.9295 68.5028 55.3883 67.1541 55.8193C66.3616 53.0942 65.3188 50.2578 64.0258 47.3519C65.3049 44.4599 66.3338 41.6375 67.1124 38.9262C68.4889 39.3573 69.7958 39.83 71.0194 40.3444C75.9413 42.4439 79.1252 45.1968 79.1252 47.3797C79.1113 49.5626 75.9274 52.3295 71.0055 54.415Z"
    fill="#6A6A6A"
  ></path>
  <path
    d="M48.0923 53.7339C51.6015 53.7339 54.4463 50.8891 54.4463 47.3798C54.4463 43.8706 51.6015 41.0258 48.0923 41.0258C44.5831 41.0258 41.7383 43.8706 41.7383 47.3798C41.7383 50.8891 44.5831 53.7339 48.0923 53.7339Z"
    fill="#6A6A6A"
  ></path>
</svg>

<svg width="96" height="137" viewBox="0 0 96 137" fill="none" xmlns="http://www.w3.org/2000/svg"><path d="m18.046 127-3.312-5.184h-1.782V127h-1.638v-12.69h4.176c1.44 0 2.52.348 3.24 1.044.72.684 1.08 1.596 1.08 2.736 0 1.032-.288 1.866-.864 2.502-.576.624-1.41 1.014-2.502 1.17L19.9 127h-1.854Zm-5.094-6.372h2.394c1.86 0 2.79-.816 2.79-2.448 0-1.632-.93-2.448-2.79-2.448h-2.394v4.896Zm17.946.882c0 .348-.024.648-.072.9h-7.902c.036 1.128.354 1.974.954 2.538.612.564 1.356.846 2.232.846.792 0 1.452-.198 1.98-.594.54-.408.87-.948.99-1.62h1.746a4.098 4.098 0 0 1-.81 1.836c-.408.54-.942.96-1.602 1.26-.66.3-1.404.45-2.232.45-.948 0-1.788-.204-2.52-.612a4.399 4.399 0 0 1-1.728-1.746c-.408-.768-.612-1.668-.612-2.7 0-1.032.204-1.932.612-2.7a4.37 4.37 0 0 1 1.728-1.764c.732-.408 1.572-.612 2.52-.612.96 0 1.794.204 2.502.612.72.408 1.266.954 1.638 1.638.384.684.576 1.44.576 2.268Zm-1.656.108c.036-.732-.084-1.344-.36-1.836a2.632 2.632 0 0 0-1.134-1.098 3.452 3.452 0 0 0-1.566-.36c-.9 0-1.656.282-2.268.846-.612.552-.942 1.368-.99 2.448h6.318Zm7.849-4.626c.96 0 1.77.24 2.43.72a3.735 3.735 0 0 1 1.404 1.926v-2.52h1.638V127h-1.638v-2.52a3.735 3.735 0 0 1-1.404 1.926c-.66.48-1.47.72-2.43.72-.876 0-1.656-.204-2.34-.612-.684-.408-1.224-.99-1.62-1.746-.384-.768-.576-1.668-.576-2.7 0-1.032.192-1.932.576-2.7.396-.768.936-1.356 1.62-1.764.684-.408 1.464-.612 2.34-.612Zm.468 1.458c-1.008 0-1.818.324-2.43.972-.6.636-.9 1.518-.9 2.646s.3 2.016.9 2.664c.612.636 1.422.954 2.43.954.648 0 1.224-.15 1.728-.45.516-.3.918-.72 1.206-1.26.288-.552.432-1.188.432-1.908s-.144-1.356-.432-1.908a2.985 2.985 0 0 0-1.206-1.26c-.504-.3-1.08-.45-1.728-.45Zm11.985-1.458c1.26 0 2.303.336 3.132 1.008.828.672 1.337 1.572 1.53 2.7h-1.729c-.12-.708-.45-1.26-.99-1.656-.528-.408-1.188-.612-1.98-.612-.575 0-1.103.132-1.584.396-.468.264-.846.672-1.134 1.224-.288.54-.431 1.212-.431 2.016s.144 1.482.431 2.034c.288.54.666.942 1.134 1.206.48.264 1.008.396 1.584.396.793 0 1.453-.204 1.98-.612.54-.408.87-.966.99-1.674h1.729c-.193 1.14-.703 2.046-1.53 2.718-.829.66-1.873.99-3.133.99-.947 0-1.788-.204-2.52-.612a4.399 4.399 0 0 1-1.728-1.746c-.407-.768-.611-1.668-.611-2.7 0-1.032.204-1.932.611-2.7a4.37 4.37 0 0 1 1.728-1.764c.732-.408 1.572-.612 2.52-.612Zm11.521 8.568V127h-1.224c-1.008 0-1.764-.24-2.268-.72-.492-.48-.738-1.284-.738-2.412v-5.328H55.36v-1.422h1.476v-2.466h1.656v2.466h2.556v1.422h-2.556v5.364c0 .636.114 1.074.342 1.314.24.228.648.342 1.224.342h1.008Zm12.62-11.25v9.432c0 1.044-.3 1.872-.9 2.484-.588.6-1.416.9-2.484.9-1.152 0-2.058-.336-2.718-1.008-.648-.684-.972-1.638-.972-2.862h1.638c0 .732.162 1.314.486 1.746.324.42.822.63 1.494.63.636 0 1.098-.18 1.386-.54.288-.36.432-.81.432-1.35v-9.432h1.638Zm10.573 9.396c0 .6-.144 1.158-.432 1.674-.288.516-.726.936-1.314 1.26-.588.324-1.314.486-2.178.486-.84 0-1.59-.15-2.25-.45a4.187 4.187 0 0 1-1.566-1.26 3.661 3.661 0 0 1-.666-1.836h1.746a2.6 2.6 0 0 0 .36 1.062c.216.336.516.618.9.846.396.216.87.324 1.422.324.72 0 1.272-.192 1.656-.576.384-.384.576-.876.576-1.476 0-.516-.138-.936-.414-1.26a2.695 2.695 0 0 0-.99-.756c-.396-.192-.936-.396-1.62-.612a18.488 18.488 0 0 1-1.944-.738 3.483 3.483 0 0 1-1.242-1.062c-.336-.468-.504-1.086-.504-1.854 0-.66.156-1.242.468-1.746.324-.504.78-.894 1.368-1.17.6-.276 1.302-.414 2.106-.414 1.248 0 2.238.306 2.97.918a3.445 3.445 0 0 1 1.278 2.304h-1.764c-.096-.504-.354-.948-.774-1.332-.42-.384-.99-.576-1.71-.576-.66 0-1.188.174-1.584.522-.396.336-.594.816-.594 1.44 0 .492.126.894.378 1.206.264.3.588.54.972.72.384.168.912.36 1.584.576.816.264 1.47.516 1.962.756.504.24.93.606 1.278 1.098.348.48.522 1.122.522 1.926Z" fill="#A0A0A0"/><path d="M82.212 47.38c0-4.519-5.659-8.801-14.335-11.457 2.002-8.843 1.112-15.878-2.808-18.13-.904-.529-1.96-.78-3.115-.78v3.101c.64 0 1.154.126 1.585.362C65.43 21.56 66.25 25.69 65.611 31a42.82 42.82 0 0 1-.71 4.088c-2.724-.668-5.7-1.182-8.828-1.516-1.877-2.572-3.824-4.908-5.784-6.952 4.532-4.212 8.787-6.52 11.679-6.52V17c-3.824 0-8.829 2.725-13.89 7.452-5.06-4.7-10.066-7.396-13.89-7.396v3.1c2.878 0 7.147 2.294 11.68 6.48a65.677 65.677 0 0 0-5.743 6.937c-3.142.334-6.117.848-8.843 1.53a41.926 41.926 0 0 1-.723-4.032c-.653-5.312.153-9.441 2.03-10.54.418-.25.96-.36 1.6-.36V17.07c-1.169 0-2.225.25-3.143.778-3.907 2.253-4.783 9.274-2.767 18.089C19.631 38.607 14 42.875 14 47.38c0 4.518 5.659 8.8 14.335 11.456-2.002 8.843-1.113 15.879 2.808 18.13.904.53 1.96.78 3.129.78 3.823 0 8.829-2.726 13.89-7.453 5.06 4.7 10.066 7.397 13.89 7.397 1.167 0 2.224-.25 3.142-.779 3.907-2.252 4.783-9.273 2.766-18.089 8.62-2.655 14.252-6.937 14.252-11.442Zm-18.103-9.274a62.637 62.637 0 0 1-1.877 5.492 65.818 65.818 0 0 0-1.821-3.337 75.252 75.252 0 0 0-2.002-3.254 62.75 62.75 0 0 1 5.7 1.099Zm-6.368 14.807a74.058 74.058 0 0 1-3.35 5.312c-2.072.18-4.172.278-6.285.278-2.1 0-4.199-.098-6.257-.264a76.642 76.642 0 0 1-3.364-5.284 72.387 72.387 0 0 1-2.892-5.534 72.522 72.522 0 0 1 2.878-5.547 74.068 74.068 0 0 1 3.35-5.311 72.366 72.366 0 0 1 6.285-.279c2.1 0 4.199.098 6.257.265a76.602 76.602 0 0 1 3.364 5.283 72.442 72.442 0 0 1 2.892 5.534 77.868 77.868 0 0 1-2.878 5.547Zm4.491-1.807a59.583 59.583 0 0 1 1.919 5.534c-1.821.445-3.74.82-5.728 1.112a76.767 76.767 0 0 0 2.002-3.295 79.062 79.062 0 0 0 1.807-3.351ZM48.134 65.94a57.315 57.315 0 0 1-3.865-4.449c1.25.056 2.53.097 3.823.097 1.307 0 2.6-.027 3.865-.097a54.304 54.304 0 0 1-3.823 4.45Zm-10.345-8.19a62.686 62.686 0 0 1-5.7-1.097 62.614 62.614 0 0 1 1.877-5.492 65.818 65.818 0 0 0 1.821 3.337 92.163 92.163 0 0 0 2.002 3.253Zm10.275-28.933a57.336 57.336 0 0 1 3.865 4.45 86.097 86.097 0 0 0-3.823-.098c-1.307 0-2.6.028-3.865.097a54.284 54.284 0 0 1 3.823-4.449Zm-10.289 8.19a76.933 76.933 0 0 0-3.81 6.632 59.573 59.573 0 0 1-1.918-5.534 67.54 67.54 0 0 1 5.728-1.099ZM25.193 54.415c-4.922-2.1-8.106-4.852-8.106-7.035s3.184-4.95 8.105-7.036c1.196-.514 2.503-.973 3.852-1.404.792 2.725 1.835 5.562 3.128 8.468-1.279 2.892-2.308 5.714-3.086 8.425a42.22 42.22 0 0 1-3.893-1.418Zm7.48 19.869c-1.891-1.085-2.712-5.214-2.072-10.526.153-1.307.403-2.683.71-4.087 2.724.667 5.7 1.181 8.828 1.515 1.877 2.572 3.824 4.908 5.784 6.952-4.533 4.213-8.787 6.52-11.68 6.52-.625-.013-1.153-.138-1.57-.374Zm32.98-10.595c.653 5.311-.153 9.44-2.03 10.539-.418.25-.96.361-1.6.361-2.878 0-7.146-2.294-11.679-6.479a65.677 65.677 0 0 0 5.743-6.938c3.142-.333 6.117-.848 8.843-1.53.32 1.405.57 2.754.722 4.047Zm5.352-9.274c-1.195.514-2.502.973-3.85 1.404-.793-2.725-1.836-5.561-3.13-8.467 1.28-2.892 2.309-5.714 3.087-8.426 1.377.431 2.684.904 3.907 1.418 4.922 2.1 8.106 4.853 8.106 7.036-.014 2.183-3.198 4.95-8.12 7.035Z" fill="#6A6A6A"/><path d="M48.092 53.734a6.354 6.354 0 1 0 0-12.708 6.354 6.354 0 0 0 0 12.708Z" fill="#6A6A6A"/></svg>
